!!!!SEGMENT: pl-wnifc--13846--073_anonim--piesni-polskie-i-ruskie-ludu-galicyjskiego-73-oj-u-poli-kiernyczen-ka.krn
!!!kernsource:
!!!cenid: 18xx:3295
!!!COM: Anonim
!!!COM-rismid: pe30004985
!!!CDT:
!!!CNT:
!!!GTL: Pieśni polskie i ruskie ludu galicyjskiego
!!!OTL: 73. Oj u poli kiernyczeń ka
!!!PDT: 1833
!!!AGN:
!!!SMS-siglum: PL-Wnifc
!!!SMS-shelfmark: 13846
!!!SMS-shelfwork: 073 G
!!!NIFC-rismid: 1001037240
!!!URL-scan: http://repozytorium.nifc.pl/skany/pl-wnifc-nut--13846
!!!ONB-nifc:
!!!AIN: 1 piano 1 vox
!!!key: G
!!!OMD: Andante
**kern	**kern	**kern	**text
*part2	*part2	*part1	*part1
*staff3	*staff2	*staff1	*staff1
*I"FORTEPIAN.	*I"FORTEPIAN.	*I"GŁOS.	*
*Ipiano	*Ipiano	*Ivox	*
*ICklav	*ICklav	*ICvox	*
*IGacmp	*IGacmp	*IGsolo	*
*>[A,B,B]	*>[A,B,B]	*>[A,B,B]	*>[A,B,B]
*>A	*>A	*>A	*>A
*clefF4	*clefG2	*clefG2	*
*k[f#]	*k[f#]	*k[f#]	*
*G:	*G:	*G:	*
*M2/4	*M2/4	*M2/4	*
=1-	=1-	=1-	=1-
!	!	!LO:TX:a:t=E.20.	!
8GG/ 8GGG/	8b/L 8g/	8b\	Oj
8r	8dd\ 8b\	8dd\	u
8G\	8dd\ 8b\	8dd\	po-
8r	8dd\J 8b\	8dd\	-li
=2	=2	=2	=2
4GG/ 4GGG/	8.ee\L 8.cc\	8.ee\	kier-
.	16dd\Jk 16b\	16dd\	-ny-
4F#/ 4D/ 4C/ 4GG/	(16cc\LL 16a\	(16cc\LL	-czeń
.	16b\ 16g#X\)	16b\JJ)	.
.	(16cc\ 16a\	(16cc\LL	ka
.	16ee\JJ 16cc\)	16ee\JJ)	.
!!LO:LB:g=original
=3	=3	=3	=3
4GG/ 4GGG/	8.dd\L 8.b\	8.dd\	wy-
.	16cc\Jk 16a\	16cc\	-dno
4G\ 4D\ 4BB\ 4GG\	4b\ 4g\	4b\	dno,
=4	=4	=4	=4
4GG/ 4GGG/	8b/L 8g/	8b\	czo-
.	8dd\ 8b\	8dd\	-muś
4G\ 4D\ 4BB\ 4GG\	8dd\ 8b\	8dd\	mo-
.	8dd\J 8b\	8dd\	-ho
!!LO:PB:g=original
=5	=5	=5	=5
*^	*	*	*
4F#/	4D\ 4C\ 4GG\	8.ee\L 8.cc\	8.ee\	my-
.	.	16dd\Jk 16b\	16dd\	-teń-
4F#/	4D\ 4C\ 4GG\	(16cc\LL 16a\	(16cc\LL	-ko-
.	.	16b\JJ 16g#X\)	16b\JJ)	.
.	.	(16cc\LL 16a\	(16cc\LL	ho
.	.	16ee\JJ 16cc\)	16ee\JJ)	.
=6	=6	=6	=6	=6
4G/	4D\ 4BB\ 4GG\	8.dd\L 8.b\	8.dd\L	ne-
.	.	16b\Jk 16g\	16b\Jk	-wy-
4G/	4D\ 4BB\ 4GG\	4b/ 4B/	4g/	-dno
*v	*v	*	*	*
=7!|:	=7!|:	=7!|:	=7!|:
*>B	*>B	*>B	*>B
8GG/'L	8g/L 8B/	8g/	Oj
8D\'	8b/ 8g/	8b/	sto-
8BB/'	8b/ 8g/	8b/	-ja-
8GG/J	8b/J 8g/	8b/	-ła
!!LO:LB:g=original
=8	=8	=8	=8
*	*	*^	*
*	*	*cue	*	*
8DD/'L	(8dd\L 8a\	8.dd/L	4cc\	kraj-
8FF#/'	8cc\ 8a\)	.	.	.
.	.	16cc/Jk	.	-kier-
*	*	*Xcue	*	*
8AA/'	8cc\ 8a\	8cc/	4ryy	-ny-
8D\'J	8cc\J 8a\	8cc/	.	-ci
*	*	*v	*v	*
=9	=9	=9	=9
4GG/	8b\L 8g\	8b\	ci-
.	8dd\J 8b\	8dd\	-tyj
4GG/ 4GGG/;	4gg\ 4b\;	4gg\;	deń
=10	=10	=10	=10
4GG/ 4GGG/	8b/L 8g/	8b\	ne
.	8dd\ 8b\	8dd\	wy-
4G/ 4GG/	8dd\ 8b\	8dd\	-di-
.	8dd\J 8b\	8dd\	-ła
!!LO:LB:g=original
=11	=11	=11	=11
4DD/	8.ee\L 8.cc\	8.ee\	my-
.	16dd\Jk 16b\	16dd\	-teń-
4c\ 4A\ 4F#\ 4D\	16cc\LL 16a\	(16cc\LL	-ko-
.	16b\JJ 16g#X\	16b\JJ)	.
.	16cc\LL 16a\	(16cc\LL	ho
.	16ee\JJ 16cc\	16ee\JJ)	.
=12	=12	=12	=12
4GG/ 4GGG/	8.dd\L 8.b\	8.dd\	i
.	16b\Jk 16g\	16b\	z tyż-
8GG/	4g/ 4d/ 4B/	4g/	-deń
8r	.	.	.
=:|!	=:|!	=:|!	=:|!
*-	*-	*-	*-
!!!system-decoration: s1{(s2,s3)}
!!!ENC: Marta Lawrence
!!!END: 2021-11-10
